X:335
T:Aure Francoise
O:england
M:3/4
L:1/4
K:G
d|g2f|edg|B2d|e2d|c/B/Ad|BGd|\
g2f|edg|B2d|e2d|c/B/Ad|G2:|
|:d|ece|dBd|c/B/Ad|BGd|\
e c/e/ c/e/|dBd|cBA|G2:|
